X: 8
T: John Brennan's
Z: FiddlerChameleon
S: https://thesession.org/tunes/404#setting49348
R: reel
M: 4/4
L: 1/8
K: Cdor
|:B,2 D-F BdcB|ABGA FBDF|G3 F3 DF|GFED CEDC|
B,2 D-F BdcB|ABGA FBDF|G2 E-G FGBc|1 d2 B-e dB B2:|2 d2 B-e dBBc||
dcBe dcBc|dcBG FGDF|G3 F3 DF|GFED CFBc|
d2 B-d c2 B-c|dcBG FGDF|G2 E-G FGBc|d2 B-e dBBc|
dcBe dcBc|dcBG FGDF|G3 F3 DF|GFED CEDC|
B,2 D-F BdcB|ABGA FBDF|G2 E-G FGBc|d2 Be dB B2||

